symbols/web/api/materialsymbolsoutlined/api_wght100gradN25_40px.svg

<svg xmlns="http://www.w3.org/2000/svg" height="40" width="40"><path d="M20 23.625 16.375 20 20 16.333 23.667 20Zm-3.542-9.708-2.166-2.167L20 6l5.708 5.75-2.166 2.167L20 10.375ZM11.75 25.708 6 20l5.75-5.708 2.167 2.166L10.375 20l3.542 3.542Zm16.5 0-2.167-2.166L29.625 20l-3.542-3.542 2.167-2.166L34 20ZM20 34l-5.708-5.75 2.166-2.167L20 29.625l3.542-3.542 2.166 2.167Z"/></svg>

<svg xmlns="http://www.w3.org/2000/svg" height="40" width="40"><path d="M20 23.625 16.375 20 20 16.333 23.667 20ZM16.458 13.917 14.292 11.75 20 6 25.708 11.75 23.542 13.917 20 10.375ZM11.75 25.708 6 20 11.75 14.292 13.917 16.458 10.375 20 13.917 23.542ZM28.25 25.708 26.083 23.542 29.625 20 26.083 16.458 28.25 14.292 34 20ZM20 34 14.292 28.25 16.458 26.083 20 29.625 23.542 26.083 25.708 28.25Z"/></svg>
